style-guide/assets/xd-icons-clock-tiny.svg

<svg viewBox="0 0 12 12" xmlns="http://www.w3.org/2000/svg">
  <path d="M6 10c-2.206 0-4-1.794-4-4s1.794-4 4-4 4 1.794 4 4-1.794 4-4 4M6 0C2.691 0 0 2.691 0 6s2.691 6 6 6 6-2.691 6-6-2.691-6-6-6m2 5H7V4a1 1 0 1 0-2 0v2a1 1 0 0 0 1 1h2a1 1 0 1 0 0-2" fill="#000" fill-rule="evenodd"/>
</svg>

<?xml version="1.0" encoding="UTF-8"?>
<svg width="12px" height="12px" viewBox="0 0 12 12" version="1.1" xmlns="http://www.w3.org/2000/svg" xmlns:xlink="http://www.w3.org/1999/xlink">
    <!-- Generator: Sketch 51.3 (57544) - http://www.bohemiancoding.com/sketch -->
    <title>watch</title>
    <desc>Created with Sketch.</desc>
    <defs></defs>
    <g id="watch" stroke="none" stroke-width="1" fill="none" fill-rule="evenodd">
        <path d="M6,10 C3.794,10 2,8.206 2,6 C2,3.794 3.794,2 6,2 C8.206,2 10,3.794 10,6 C10,8.206 8.206,10 6,10 M6,0 C2.691,0 0,2.691 0,6 C0,9.309 2.691,12 6,12 C9.309,12 12,9.309 12,6 C12,2.691 9.309,0 6,0 M8,5 L7,5 L7,4 C7,3.448 6.553,3 6,3 C5.447,3 5,3.448 5,4 L5,6 C5,6.552 5.447,7 6,7 L8,7 C8.553,7 9,6.552 9,6 C9,5.448 8.553,5 8,5" id="Fill-1" fill="#000000"></path>
    </g>
</svg>
